dist/assets/images/linking-5.svg

<?xml version="1.0" encoding="UTF-8"?>
<svg width="104px" height="92px" viewBox="0 0 104 92" version="1.1" xmlns="http://www.w3.org/2000/svg" xmlns:xlink="http://www.w3.org/1999/xlink">
    <!-- Generator: Sketch 41.2 (35397) - http://www.bohemiancoding.com/sketch -->
    <title>Group 10</title>
    <desc>Created with Sketch.</desc>
    <defs></defs>
    <g id="LP:-Верстка" stroke="none" stroke-width="1" fill="none" fill-rule="evenodd">
        <g id="Сквозное-меню" transform="translate(-556.000000, -487.000000)">
            <g id="Group-3" transform="translate(450.000000, 450.000000)">
                <g id="Group-10" transform="translate(106.000000, 37.000000)">
                    <ellipse id="Oval-4" fill="#ABEFC8" cx="76" cy="64" rx="28" ry="28"></ellipse>
                    <g id="Page-1" fill="#000000">
                        <path d="M0.00410869565,-6.52173912e-05 L0.00410869565,1.10036957 L0.00410869565,58.7525435 L0.00410869565,73.3116739 L0.00410869565,74.4099348 L-2.17391298e-05,74.4162391 L7.76345652,79.9486304 L7.7665,79.9445 L92.452587,79.9445 L92.452587,22.1258043 L85.6736739,22.1258043 L85.6736739,11.1942826 L85.6736739,10.0938478 L84.5721522,10.0938478 L39.8495435,10.0938478 L35.4888913,0.639717391 L35.1930217,-6.52173912e-05 L0.00410869565,-6.52173912e-05 Z M2.2041087,73.2929783 L2.20519565,72.2110217 L2.20519565,71.8912391 L2.20519565,58.7525435 L2.20519565,2.2018913 L33.7901957,2.2018913 L38.1508478,11.6551522 L38.4458478,12.2958043 L39.147587,12.2958043 L83.4728043,12.2958043 L83.4728043,22.1258043 L7.7665,22.1258043 L7.7665,77.2560217 L2.2041087,73.2929783 Z M9.96867391,24.3277609 L90.2506304,24.3277609 L90.2506304,77.740587 L90.2497609,77.740587 L9.96867391,77.740587 L9.96867391,24.3277609 Z" id="Fill-1"></path>
                        <polygon id="Fill-2" points="59.7982174 62.4184783 70.266913 51.9497826 70.2606087 51.9445652 70.3310435 51.8732609 59.8634348 41.4056522 58.3064783 42.9626087 67.2232174 51.8793478 58.2412609 60.8615217"></polygon>
                        <polygon id="Fill-3" points="29.4865435 51.9498261 39.9541522 62.4185217 41.5111087 60.8613478 32.5291522 51.8793913 41.4469783 42.9626522 39.8900217 41.4056957 29.4213261 51.8733043 29.4917609 51.9446087"></polygon>
                        <polygon id="Fill-4" points="54.0607391 37.7780435 51.7861739 37.7780435 44.6987826 64.226087 46.9753043 64.226087"></polygon>
                    </g>
                </g>
            </g>
        </g>
    </g>
</svg>

<svg width="104" height="92" viewBox="0 0 104 92" xmlns="http://www.w3.org/2000/svg"><title>Group 10</title><g fill="none" fill-rule="evenodd"><ellipse fill="#ABEFC8" cx="76" cy="64" rx="28" ry="28"/><g fill="#000"><path d="M.004 0v74.41L0 74.416l7.763 5.533.003-.004h84.687v-57.82h-6.78v-12.03H39.85L35.489.64 35.193 0H.004zm2.2 73.293l.001-1.082V2.202H33.79l4.36 9.453.296.64h45.027v9.83H7.766v55.131l-5.562-3.963zM9.97 24.328h80.28V77.74H9.969V24.328z"/><path d="M59.798 62.418L70.267 51.95l-.006-.005.07-.072-10.468-10.467-1.557 1.557 8.917 8.916-8.982 8.983zM29.487 51.95l10.467 10.469 1.557-1.558-8.982-8.982 8.918-8.916-1.557-1.557-10.469 10.467.07.072zM54.06 37.778h-2.274L44.7 64.226h2.276z"/></g></g></svg>
